X: 682
T: After The Sun Goes Down
R: reel
M: 4/4
K: Gmajor
|:G2BG G2BG|egfa gedB|G2BG G2BG|AcBA GE E2:|
|:gfeg fedB|gfga be e2|gfeg fedB|AcBA GE E2:|

